X: 24940
T: Maid I Never Forgot, The
R: reel
M: 4/4
K: Eminor
B3c d3e|fBbB afge|edBc deed|aec’b afec|
B3e d3e|fBbB afge|edBc deed|1 afge fedc:|2 afge fB~B2||
|:~f3a ~b3B|d’Bc’a bafe|~f3e deed|afge fedc|
B2fB aBfB|~B2bB afge|edBc deed|1 afge fB~B2:|2 afge fedc||
E3F G3A|BEeE dBcA|AGEF GAAG|dAfe dBAF|
E3F G3A|BEeE dBcA|AGEF GAAG|1 dBcA BAGF:|2 dBcA BE~E2||
|:~B3d ~e3E|gEfd edBA|~B3A GAAG|dBcA BAGF|
E2BE dEBE|~E2eE dBcA|AGEF GAAG|1 dBcA BE~E2:|2 dBcA BE~E2||

